X: 51
T:Green Fields of Rossbeigh
T:Kerry
R:Reel
S:Trad, arr. Paddy O'Brien
M:C|
L:1/8
Q:1/2=112
K:Edor
FA|BE~E2 B2 AF|ABde fded|BE~E2 B2 AF|BFAF ~E2FA|
BABd BAFB|ABde fded|BE~E2 B2 AF|BFAF E2:|
FA|Bdef ~g2fe|dB~B2 dBAd|Bdef gefe|dBAF ~E2ef|
gfga gfeg|~f2eg fedB|ABde fdec|dBAF E2:|
